X:0347
M:6/8
L:1/8
Q:3/8=120
K:D
  dcd D2d|ede E2e|fgf edc|dAF D2:|
a|aga F2a|gfg E2g|fga agf|efd cBA|
  G2b F2a|E2g efg|fed ABc|dAF D2:|

